resources/light/mark.svg

<?xml version="1.0" encoding="UTF-8" standalone="no"?>
<svg
   xmlns:dc="http://purl.org/dc/elements/1.1/"
   xmlns:cc="http://creativecommons.org/ns#"
   xmlns:rdf="http://www.w3.org/1999/02/22-rdf-syntax-ns#"
   xmlns:svg="http://www.w3.org/2000/svg"
   xmlns="http://www.w3.org/2000/svg"
   width="16"
   height="16"
   viewBox="0 0 16 16"
   version="1.1"
   id="svg4">
  <metadata
     id="metadata10">
    <rdf:RDF>
      <cc:Work
         rdf:about="">
        <dc:format>image/svg+xml</dc:format>
        <dc:type
           rdf:resource="http://purl.org/dc/dcmitype/StillImage" />
        <dc:title></dc:title>
      </cc:Work>
    </rdf:RDF>
  </metadata>
  <defs
     id="defs8" />
  <path
     d="M 10.915254,2.1694915 H 5.0847458 c -0.5320339,0 -0.7288136,0.1967797 -0.7288136,0.7288136 V 13.830508 L 8,11.578475 11.644068,13.830508 V 2.8983051 c 0,-0.5320339 -0.19678,-0.7288136 -0.728814,-0.7288136 z M 10.34678,5.2669492 8.9911864,6.2581356 9.5159322,7.8323729 C 9.559661,7.9927119 9.5013559,8.0364407 9.3701695,7.9562712 L 8,6.979661 6.6298305,7.9562712 C 6.4913559,8.0364407 6.4476271,7.9927119 6.4840678,7.8323729 L 7.0088136,6.2581356 5.6532203,5.2669492 C 5.529322,5.150339 5.5511864,5.099322 5.7188136,5.099322 L 7.3950847,5.0774576 7.9052542,3.5032203 h 0.1822034 l 0.5101695,1.5742373 1.6762709,0.021864 c 0.167627,0 0.19678,0.058305 0.06559,0.1676272 z"
     fill="#424242" />
</svg>

<svg xmlns="http://www.w3.org/2000/svg" width="16" height="16">
   <path d="M10.915 2.17h-5.83c-.532 0-.73.196-.73.728v10.933L8 11.578l3.644 2.253V2.898c0-.532-.197-.729-.729-.729zm-.568 3.097l-1.356.991.525 1.574c.044.16-.015.204-.146.124L8 6.98l-1.37.976c-.139.08-.182.037-.146-.124l.525-1.574-1.356-.991c-.124-.117-.102-.168.066-.168l1.676-.022.51-1.574h.182l.51 1.574 1.677.022c.168 0 .197.059.065.168z" fill="#424242"/>
</svg>
